svgs/light/kip-sign.svg

<svg xmlns="http://www.w3.org/2000/svg" viewBox="0 0 384 512"><!--! Font Awesome Pro 6.1.1 by @fontawesome - https://fontawesome.com License - https://fontawesome.com/license (Commercial License) Copyright 2022 Fonticons, Inc. --><path d="M80 32C88.84 32 96 39.16 96 48V222.4L325.9 35.58C332.8 30.01 342.8 31.05 348.4 37.91C353.1 44.77 352.9 54.85 346.1 60.42L125.1 240H368C376.8 240 384 247.2 384 256C384 264.8 376.8 272 368 272H125.1L346.1 451.6C352.9 457.2 353.1 467.2 348.4 474.1C342.8 480.9 332.8 481.1 325.9 476.4L96 289.6V464.1C96 473.8 88.84 480.1 80 480.1C71.16 480.1 64 473.8 64 464.1V272H16C7.164 272 0 264.8 0 256C0 247.2 7.164 240 16 240H64V48C64 39.16 71.16 32 80 32V32z"/></svg>

<svg xmlns="http://www.w3.org/2000/svg" viewBox="0 0 384 512"><!--! Font Awesome Pro 6.4.2 by @fontawesome - https://fontawesome.com License - https://fontawesome.com/license (Commercial License) Copyright 2023 Fonticons, Inc. --><path d="M80 32c8.8 0 16 7.2 16 16V222.4L325.9 35.6c6.9-5.6 16.9-4.5 22.5 2.3s4.5 16.9-2.3 22.5L125.1 240H368c8.8 0 16 7.2 16 16s-7.2 16-16 16H125.1l221 179.6c6.9 5.6 7.9 15.6 2.3 22.5s-15.7 7.9-22.5 2.3L96 289.6V465c0 8.8-7.2 16-16 16s-16-7.2-16-16V272H16c-8.8 0-16-7.2-16-16s7.2-16 16-16H64V48c0-8.8 7.2-16 16-16z"/></svg>
